MonoIcons/scalable/status/weather-storm-symbolic.svg

<?xml version="1.0" encoding="UTF-8"?>
<svg height="16px" viewBox="0 0 16 16" width="16px" xmlns="http://www.w3.org/2000/svg">
    <path d="m 9.507812 0.0429688 c -1.269531 0 -2.304687 0.9726562 -2.449218 2.2187502 c -0.320313 -0.121094 -0.652344 -0.21875 -1.019532 -0.21875 c -1.644531 0 -2.976562 1.34375 -2.976562 3 c 0 0.101562 0.023438 0.1875 0.03125 0.28125 c -0.296875 -0.175781 -0.648438 -0.28125 -1.023438 -0.28125 c -1.09375 0 -1.9804682 0.898437 -1.9804682 2 c 0 1.105469 0.8164062 1.957031 1.9101562 1.957031 h 5 v -1.5 c -0.015625 -0.785156 0.738281 -1.46875 1.515625 -1.488281 c 0.800781 -0.015625 1.5 0.683593 1.484375 1.488281 v 1.5 h 4.5 c 0.820312 0 1.453125 -0.625 1.453125 -1.457031 c 0 -0.828125 -0.664063 -1.5 -1.488281 -1.5 c -0.203125 0 -0.40625 0.050781 -0.585938 0.125 c 0.050782 -0.199219 0.089844 -0.40625 0.089844 -0.625 c 0 -1.226563 -0.882812 -2.226563 -2.042969 -2.4375 c 0.042969 -0.179688 0.0625 -0.367188 0.0625 -0.5625 c 0 -1.378907 -1.109375 -2.5000002 -2.480469 -2.5000002 z m -1.007812 6.9570312 c -0.132812 0 -0.261719 0.050781 -0.355469 0.144531 s -0.144531 0.222657 -0.144531 0.355469 v 2.5 h -3 v 1 h -1.707031 l -2.648438 2.644531 c -0.09375 0.09375 -0.144531 0.222657 -0.144531 0.355469 s 0.050781 0.261719 0.144531 0.355469 s 0.222657 0.144531 0.355469 0.144531 s 0.261719 -0.050781 0.351562 -0.144531 l 2.355469 -2.355469 h 1.292969 v 3 c 0 0.132812 0.050781 0.261719 0.144531 0.355469 s 0.222657 0.144531 0.355469 0.144531 s 0.261719 -0.050781 0.355469 -0.144531 s 0.144531 -0.222657 0.144531 -0.355469 v -4 h 2 v 0.707031 l 2 2 v 1.292969 c 0 0.132812 0.050781 0.261719 0.144531 0.355469 s 0.222657 0.144531 0.355469 0.144531 s 0.261719 -0.050781 0.355469 -0.144531 s 0.144531 -0.222657 0.144531 -0.355469 v -1 h 1.359375 l 2.382813 1.425781 c 0.238281 0.144531 0.542968 0.066407 0.683593 -0.167969 c 0.144531 -0.234374 0.066407 -0.542968 -0.167969 -0.683593 l -2.621093 -1.574219 h -1.929688 l -1.707031 -1.707031 v -3.792969 c 0 -0.132812 -0.050781 -0.261719 -0.144531 -0.355469 s -0.222657 -0.144531 -0.355469 -0.144531 z m 0 0" fill="#2e3436"/>
</svg>

<svg width="16" height="16" viewBox="0 0 16 16" fill="none" xmlns="http://www.w3.org/2000/svg">
<g clip-path="url(#clip0_231_1208)">
<path d="M9.50781 0.0429688C8.23828 0.0429688 7.20313 1.01563 7.0586 2.26172C6.73828 2.14063 6.40625 2.04297 6.03906 2.04297C4.39453 2.04297 3.0625 3.38672 3.0625 5.04297C3.0625 5.14453 3.08594 5.23047 3.09375 5.32422C2.79688 5.14844 2.44531 5.04297 2.07031 5.04297C0.976562 5.04297 0.0898438 5.94141 0.0898438 7.04297C0.0898438 8.14844 0.90625 9 2 9H7V7.5C6.98438 6.71484 7.73828 6.03125 8.51563 6.01172C9.31641 5.99609 10.0156 6.69531 10 7.5V9H14.5C15.3203 9 15.9531 8.375 15.9531 7.54297C15.9531 6.71485 15.2891 6.04297 14.4648 6.04297C14.2617 6.04297 14.0586 6.09375 13.8789 6.16797C13.9297 5.96875 13.9688 5.76172 13.9688 5.54297C13.9688 4.31641 13.0859 3.31641 11.9258 3.10547C11.9688 2.92578 11.9883 2.73828 11.9883 2.54297C11.9883 1.16406 10.8789 0.0429688 9.50781 0.0429688V0.0429688ZM8.5 7C8.36719 7 8.23828 7.05078 8.14453 7.14453C8.05078 7.23828 8 7.36719 8 7.5V10H5V11H3.29297L0.644531 13.6445C0.550781 13.7383 0.5 13.8672 0.5 14C0.5 14.1328 0.550781 14.2617 0.644531 14.3555C0.738281 14.4492 0.867188 14.5 1 14.5C1.13281 14.5 1.26172 14.4492 1.35156 14.3555L3.70703 12H5V15C5 15.1328 5.05078 15.2617 5.14453 15.3555C5.23828 15.4492 5.36719 15.5 5.5 15.5C5.63281 15.5 5.76172 15.4492 5.85547 15.3555C5.94922 15.2617 6 15.1328 6 15V11H8V11.707L10 13.707V15C10 15.1328 10.0508 15.2617 10.1445 15.3555C10.2383 15.4492 10.3672 15.5 10.5 15.5C10.6328 15.5 10.7617 15.4492 10.8555 15.3555C10.9492 15.2617 11 15.1328 11 15V14H12.3594L14.7422 15.4258C14.9805 15.5703 15.2852 15.4922 15.4258 15.2578C15.5703 15.0234 15.4922 14.7148 15.2578 14.5742L12.6367 13H10.707L9 11.293V7.5C9 7.36719 8.94922 7.23828 8.85547 7.14453C8.76172 7.05078 8.63281 7 8.5 7V7Z" fill="#2E3436"/>
</g>
<defs>
<clipPath id="clip0_231_1208">
<rect width="16" height="16" fill="white"/>
</clipPath>
</defs>
</svg>
